X: 161
%
T: Dunse Dings A'
C:
O:Scotland
B:Keith Norman MacDonald : "The Skye collection of the best reels & strathspeys extant" : 1887
Z:Ralph Palmer
R:Reel
M:C
L:1/8
K:A
e | (ce)eg aecA | (ce)eg a3 e | ce (e/2f/2g) aecA | B=GGB g2 gB :| (c/2B/2A) eA (fA)ea | c/2B/2A eg a2 ae |
(c/2B/2A) eA fAe=c | B=GGB g2 gB | (c/2B/2A) eA (fA)eA | (c/2B/2A) eg a2 ae | (c/2B/2A) ec fde=c | B=GGB g2 gB !D.C.! |]


